!!!OTL: Die verkaufte Muellerin Es ging ein Mueller wohl ueber Feld,
!!!ARE: Europa, Mitteleuropa, Deutschland (BRD), Baden
!!!YOR: 4, S. 338
!!    1848 aufgezeichnet
!!!SCT: Q0086J
!!!YEM: Copyright 1995, estate of Helmut Schaffrath.
**kern
*ICvox
*Ivox
*M4/4
*k[f#]
*G:
{4d
=1
4g
4b
4a
4dd
=2
4b
8b
8a
4g}
{4d
=3
4g
4b
4a
4dd
=4
4b
8b
8a
4g}
{8g
8a
=5
2b
2dd
=6
4ee
4dd
4cc
8a
8cc
=7
2cc
4b}
==
!!!AGN: Ballade, Menschenhandel, Rettung, Hinrichtung
!!!ONB: ESAC (Essen Associative Code) Database: BALLADE
!!!AMT: simple quadruple
!!!AIN: vox
!!!EED: Helmut Schaffrath
!!!EEV: 1.0
*-
